X: 1
T: The Ships Are Sailing
R: reel
M: 4/4
L: 1/8
K: Edor
Beed BcdB | AD (3FED A,D (3FED | ~E3F GFGA | Beef gfed |
Beed BcdB | AD (3FED A,D (3FED | ~E3F GFGA | Beed e3z :||
~g3a bgeg | ~f3g afdf | gfga bgaf | gefd e2 de |
gfga bgeg | fefg afdf | g2bg f2af | edef gfed :||


Tune 543	Setting 13500

